public/images/up-right-down-left.svg

<svg viewBox="0 0 118 118" xmlns="http://www.w3.org/2000/svg"><g fill="none" fill-rule="evenodd"><path fill="#E5E5E5" d="M80.3 16.05V41.5h21.45v38.55H80.3v21.5l-42.55-.05V80.05h-21.5l.05-38.55h21.45V16.05H80.3"/><path d="M80.3 37.5h21.45v4H80.3v-4m-64 0h21.45v4H16.3v-4" fill="#F3F3F3"/><path d="M16.3 37.5v4l-.05 38.55v4h-12v-50.6H16.3v4.05m21.45-21.45H33.7V4l50.6.05v12H37.75m64 21.45v-4.05h12.05l-.05 50.6h-12V37.5M80.3 101.55h4v12H33.7V101.5h4.05l42.55.05" fill="#B6B6B6"/><path d="M80.3 101.55v-21.5h21.45v4h12l.05-50.6h-12.05v4.05H80.3V16.05h4v-12L33.7 4v12.05h4.05V37.5H16.3v-4.05H4.25v50.6h12v-4h21.5v21.45H33.7v12.05h50.6v-12h-4m8-85.5c0 1.1-.383 2.05-1.15 2.85-.8.767-1.75 1.15-2.85 1.15V33.5h13.45v-.05c0-1.1.4-2.033 1.2-2.8.767-.8 1.7-1.2 2.8-1.2h12.05c1.1 0 2.05.4 2.85 1.2.767.767 1.15 1.7 1.15 2.8l-.05 50.6c0 1.1-.383 2.05-1.15 2.85-.8.767-1.75 1.15-2.85 1.15h-12c-1.1 0-2.033-.383-2.8-1.15-.8-.8-1.2-1.75-1.2-2.85H84.3v13.5c1.1 0 2.05.4 2.85 1.2.767.767 1.15 1.7 1.15 2.8v12c0 1.1-.383 2.05-1.15 2.85-.8.767-1.75 1.15-2.85 1.15H33.7c-1.1 0-2.033-.383-2.8-1.15-.8-.8-1.2-1.75-1.2-2.85V101.5c0-1.1.4-2.033 1.2-2.8.767-.8 1.7-1.2 2.8-1.2h.05V84.05h-13.5c0 1.1-.383 2.05-1.15 2.85-.8.767-1.75 1.15-2.85 1.15h-12c-1.1 0-2.033-.383-2.8-1.15-.8-.8-1.2-1.75-1.2-2.85v-50.6c0-1.1.4-2.033 1.2-2.8.767-.8 1.7-1.2 2.8-1.2H16.3c1.1 0 2.05.4 2.85 1.2.767.767 1.15 1.7 1.15 2.8v.05h13.45V20.05h-.05c-1.1 0-2.033-.383-2.8-1.15-.8-.8-1.2-1.75-1.2-2.85V4c0-1.1.4-2.033 1.2-2.8.767-.8 1.7-1.2 2.8-1.2l50.6.05c1.1 0 2.05.4 2.85 1.2.767.767 1.15 1.7 1.15 2.8v12" fill="#777"/></g></svg>

<?xml version="1.0" encoding="UTF-8" standalone="no"?>
<svg viewBox="0 0 118 118" version="1.1" xmlns="http://www.w3.org/2000/svg" xmlns:xlink="http://www.w3.org/1999/xlink">
    <g id="Page-1" stroke="none" stroke-width="1" fill="none" fill-rule="evenodd">
        <polyline id="Shape" fill="#E5E5E5" points="80.3 16.05 80.3 37.5 80.3 41.5 101.75 41.5 101.75 80.05 80.3 80.05 80.3 101.55 37.75 101.5 37.75 80.05 16.25 80.05 16.3 41.5 37.75 41.5 37.75 37.5 37.75 16.05 80.3 16.05"></polyline>
        <path d="M80.3,37.5 L101.75,37.5 L101.75,41.5 L80.3,41.5 L80.3,37.5 M16.3,37.5 L37.75,37.5 L37.75,41.5 L16.3,41.5 L16.3,37.5" id="Shape" fill="#F3F3F3"></path>
        <path d="M16.3,37.5 L16.3,41.5 L16.25,80.05 L16.25,84.05 L4.25,84.05 L4.25,33.45 L16.3,33.45 L16.3,37.5 M37.75,16.05 L33.7,16.05 L33.7,4 L84.3,4.05 L84.3,16.05 L80.3,16.05 L37.75,16.05 M101.75,37.5 L101.75,33.45 L113.8,33.45 L113.75,84.05 L101.75,84.05 L101.75,80.05 L101.75,41.5 L101.75,37.5 M80.3,101.55 L84.3,101.55 L84.3,113.55 L33.7,113.55 L33.7,101.5 L37.75,101.5 L80.3,101.55" id="Shape" fill="#B6B6B6"></path>
        <path d="M80.3,101.55 L80.3,80.05 L101.75,80.05 L101.75,84.05 L113.75,84.05 L113.8,33.45 L101.75,33.45 L101.75,37.5 L80.3,37.5 L80.3,16.05 L84.3,16.05 L84.3,4.05 L33.7,4 L33.7,16.05 L37.75,16.05 L37.75,37.5 L16.3,37.5 L16.3,33.45 L4.25,33.45 L4.25,84.05 L16.25,84.05 L16.25,80.05 L37.75,80.05 L37.75,101.5 L33.7,101.5 L33.7,113.55 L84.3,113.55 L84.3,101.55 L80.3,101.55 M88.3,16.05 C88.3,17.15 87.9166667,18.1 87.15,18.9 C86.35,19.6666667 85.4,20.05 84.3,20.05 L84.3,33.5 L97.75,33.5 L97.75,33.45 C97.75,32.35 98.15,31.4166667 98.95,30.65 C99.7166667,29.85 100.65,29.45 101.75,29.45 L113.8,29.45 C114.9,29.45 115.85,29.85 116.65,30.65 C117.416667,31.4166667 117.8,32.35 117.8,33.45 L117.75,84.05 C117.75,85.15 117.366667,86.1 116.6,86.9 C115.8,87.6666667 114.85,88.05 113.75,88.05 L101.75,88.05 C100.65,88.05 99.7166667,87.6666667 98.95,86.9 C98.15,86.1 97.75,85.15 97.75,84.05 L84.3,84.05 L84.3,97.55 C85.4,97.55 86.35,97.95 87.15,98.75 C87.9166667,99.5166667 88.3,100.45 88.3,101.55 L88.3,113.55 C88.3,114.65 87.9166667,115.6 87.15,116.4 C86.35,117.166667 85.4,117.55 84.3,117.55 L33.7,117.55 C32.6,117.55 31.6666667,117.166667 30.9,116.4 C30.1,115.6 29.7,114.65 29.7,113.55 L29.7,101.5 C29.7,100.4 30.1,99.4666667 30.9,98.7 C31.6666667,97.9 32.6,97.5 33.7,97.5 L33.75,97.5 L33.75,84.05 L20.25,84.05 C20.25,85.15 19.8666667,86.1 19.1,86.9 C18.3,87.6666667 17.35,88.05 16.25,88.05 L4.25,88.05 C3.15,88.05 2.21666667,87.6666667 1.45,86.9 C0.65,86.1 0.25,85.15 0.25,84.05 L0.25,33.45 C0.25,32.35 0.65,31.4166667 1.45,30.65 C2.21666667,29.85 3.15,29.45 4.25,29.45 L16.3,29.45 C17.4,29.45 18.35,29.85 19.15,30.65 C19.9166667,31.4166667 20.3,32.35 20.3,33.45 L20.3,33.5 L33.75,33.5 L33.75,20.05 L33.7,20.05 C32.6,20.05 31.6666667,19.6666667 30.9,18.9 C30.1,18.1 29.7,17.15 29.7,16.05 L29.7,4 C29.7,2.9 30.1,1.96666667 30.9,1.2 C31.6666667,0.4 32.6,0 33.7,0 L84.3,0.05 C85.4,0.05 86.35,0.45 87.15,1.25 C87.9166667,2.01666667 88.3,2.95 88.3,4.05 L88.3,16.05" id="Shape" fill="#777777"></path>
    </g>
</svg>
